Geotiff_Information:
   Version: 1
   Key_Revision: 0.1
   Tagged_Information:
      ModelTiepointTag (2,3):
         0                0                0                
         576496.823       4660453.59       0                
      ModelPixelScaleTag (1,3):
         25.400001        25.400001        0                
      End_Of_Tags.
   Keyed_Information:
      GTModelTypeGeoKey (Short,1): ModelTypeProjected
      GTRasterTypeGeoKey (Short,1): RasterPixelIsArea
      ProjectedCSTypeGeoKey (Short,1): PCS_WGS84_UTM_zone_17N
      PCSCitationGeoKey (Ascii,25): "UTM Zone 17 N with WGS84"
      End_Of_Keys.
   End_Of_Geotiff.

PCS = 32617 (WGS 84 / UTM zone 17N)
Projection = 16017 (UTM zone 17N)
Projection Method: CT_TransverseMercator
   ProjNatOriginLatGeoKey: 0.000000 (  0d 0' 0.00"N)
   ProjNatOriginLongGeoKey: -81.000000 ( 81d 0' 0.00"W)
   ProjScaleAtNatOriginGeoKey: 0.999600
   ProjFalseEastingGeoKey: 500000.000000
   ProjFalseNorthingGeoKey: 0.000000
GCS: 4326/WGS 84
Datum: 6326/World Geodetic System 1984
Ellipsoid: 7030/WGS 84 (6378137.00,6356752.31)
Prime Meridian: 8901/Greenwich (0.000000/  0d 0' 0.00"E)
Projection Linear Units: 9001/meter (1.000000m)

Corner Coordinates:
Upper Left    ( 576496.823,4660453.588)  ( 80d 4'29.95"W, 42d 5'32.78"N)
Lower Left    ( 576496.823,4518391.383)  ( 80d 5'34.76"W, 40d48'46.70"N)
Upper Right   ( 759427.631,4660453.588)  ( 77d51'54.10"W, 42d 3'11.98"N)
Lower Right   ( 759427.631,4518391.383)  ( 77d55'33.34"W, 40d46'32.06"N)
