Geotiff_Information:
   Version: 1
   Key_Revision: 0.1
   Tagged_Information:
      ModelTiepointTag (2,3):
         0                0                0                
         664354.283       4601368.61       0                
      ModelPixelScaleTag (1,3):
         10.16            10.16            0                
      End_Of_Tags.
   Keyed_Information:
      GTModelTypeGeoKey (Short,1): ModelTypeProjected
      GTRasterTypeGeoKey (Short,1): RasterPixelIsArea
      ProjectedCSTypeGeoKey (Short,1): PCS_WGS84_UTM_zone_17N
      PCSCitationGeoKey (Ascii,25): "UTM Zone 17 N with WGS84"
      End_Of_Keys.
   End_Of_Geotiff.

PCS = 32617 (WGS 84 / UTM zone 17N)
Projection = 16017 (UTM zone 17N)
Projection Method: CT_TransverseMercator
   ProjNatOriginLatGeoKey: 0.000000 (  0d 0' 0.00"N)
   ProjNatOriginLongGeoKey: -81.000000 ( 81d 0' 0.00"W)
   ProjScaleAtNatOriginGeoKey: 0.999600
   ProjFalseEastingGeoKey: 500000.000000
   ProjFalseNorthingGeoKey: 0.000000
GCS: 4326/WGS 84
Datum: 6326/World Geodetic System 1984
Ellipsoid: 7030/WGS 84 (6378137.00,6356752.31)
Prime Meridian: 8901/Greenwich (0.000000/  0d 0' 0.00"E)
Projection Linear Units: 9001/meter (1.000000m)

Corner Coordinates:
Upper Left    ( 664354.283,4601368.607)  ( 79d 1'45.93"W, 41d32'49.57"N)
Lower Left    ( 664354.283,4537888.927)  ( 79d 2'47.53"W, 40d58'32.25"N)
Upper Right   ( 765151.643,4601368.607)  ( 77d49'20.40"W, 41d31'12.24"N)
Lower Right   ( 765151.643,4537888.927)  ( 77d50'59.61"W, 40d56'56.84"N)
