Geotiff_Information:
   Version: 1
   Key_Revision: 0.1
   Tagged_Information:
      ModelTiepointTag (2,3):
         0                0                0                
         740726.437       4557390.41       0                
      ModelPixelScaleTag (1,3):
         2.4384           2.4384           0                
      End_Of_Tags.
   Keyed_Information:
      GTModelTypeGeoKey (Short,1): ModelTypeProjected
      GTRasterTypeGeoKey (Short,1): RasterPixelIsArea
      ProjectedCSTypeGeoKey (Short,1): PCS_WGS84_UTM_zone_17N
      PCSCitationGeoKey (Ascii,25): "UTM Zone 17 N with WGS84"
      End_Of_Keys.
   End_Of_Geotiff.

PCS = 32617 (WGS 84 / UTM zone 17N)
Projection = 16017 (UTM zone 17N)
Projection Method: CT_TransverseMercator
   ProjNatOriginLatGeoKey: 0.000000 (  0d 0' 0.00"N)
   ProjNatOriginLongGeoKey: -81.000000 ( 81d 0' 0.00"W)
   ProjScaleAtNatOriginGeoKey: 0.999600
   ProjFalseEastingGeoKey: 500000.000000
   ProjFalseNorthingGeoKey: 0.000000
GCS: 4326/WGS 84
Datum: 6326/World Geodetic System 1984
Ellipsoid: 7030/WGS 84 (6378137.00,6356752.31)
Prime Meridian: 8901/Greenwich (0.000000/  0d 0' 0.00"E)
Projection Linear Units: 9001/meter (1.000000m)

Corner Coordinates:
Upper Left    ( 740726.437,4557390.415)  ( 78d 7'55.55"W, 41d 7'55.69"N)
Lower Left    ( 740726.437,4540826.364)  ( 78d 8'18.84"W, 40d58'59.20"N)
Upper Right   ( 752996.466,4557390.415)  ( 77d59' 9.98"W, 41d 7'42.26"N)
Lower Right   ( 752996.466,4540826.364)  ( 77d59'34.46"W, 40d58'45.84"N)
